X:1
T:Title
%%score { ( 1 2 ) | ( 3 4 ) }
L:1/8
M:4/4
K:Eb
V:1 treble nm="Grand Piano"
V:2 treble 
V:3 bass 
V:4 bass 
V:1
 z4 z2[Q:1/4=100] z G | B3 B =AB c>B | B6 z2 | [DB]3 [DB] [Dc][DB] z2 |[M:3/4] B3 B cB | %5
[M:1/4] z G |[M:4/4] B3 B =AB c>B | B6 z2 | [DB]3 [DB] [Dc][DB] z2 | %9
[M:13/16] [DA]/-[DA]/-[DA]-<[DA]DDE3/2 |[M:1/4] GA | %11
[M:4/4] [EGB]2 [B,EG][A,EF] [G,E]2 [B,EG][EGB] | [EAc]2 [DA=B][EAc] [DFA]2 [DF]G | %13
 [FA]2 [=EG][FA] [Ad] [CAc]2 [DAB] | [Ad]2 [CAc][DFA] [EG]2 [EG][FA] | [GB]2 GF E2 G[GB] | %16
 c2 =Bc e2 z2 | B3 B cB z2 |[M:13/16] [DB]/-[DB]/-[DB]-<[DB]DDE3/2 |] %19
V:2
 z4 z2 E2 | x8 | z2 D2 E2 z2 | x8 |[M:3/4] x6 |[M:1/4] E2 |[M:4/4] x8 | z2 D2 E2 z2 | x8 | %9
[M:13/16] x13/2 |[M:1/4] x2 |[M:4/4] x8 | x8 | x8 | x8 | x8 | x8 | x8 |[M:13/16] x13/2 |] %19
V:3
 z4 z2 G,B, | [E,G,E]3 [E,G,E] [E,_G,E][E,=G,E] [E,A,E]>[E,G,E] | [E,G,E]2 [F,A,]2 [G,B,]2 z2 | %3
 [B,,B,]3 [B,,B,] [B,,A,][B,,A,] z2 |[M:3/4] [E,G,E]3 [E,G,E] [E,A,E][E,G,E] |[M:1/4] G,B, | %6
[M:4/4] [E,G,E]3 [E,G,E] [E,_G,E][E,=G,E] [E,A,E]>[E,G,E] | [E,G,E]2 [F,A,]2 [G,B,]2 z2 | %8
 [B,,B,]3 [B,,B,] [B,,A,][B,,A,] z2 | %9
[M:13/16] [B,,A,]/-[B,,A,]/-[B,,A,]-<[B,,A,][B,,A,B,][B,,A,B,][E,G,B,]3/2 |[M:1/4] EF | %11
[M:4/4] E,2 E,E, E,2 E,E, | A,2 A,A, B,2 z E | [B,,B,]2 [B,,B,][B,,B,] [B,,B,] B,,2 B,, | %14
 [B,,B,]2 B,,B,, E,2 [E,B,]2 | [E,E]2 [E,B,E][E,A,E] [E,G,]2 [E,B,E][E,E] | %16
 [A,EA]2 [A,DA][A,EA] [A,CA]2 z2 | [B,EG]3 [B,EG] [B,DA][B,DA] z2 | %18
[M:13/16][K:bass] [B,,B,]/-[B,,B,]/-[B,,B,]-<[B,,B,][B,,A,B,][B,,A,B,][E,G,B,]3/2 |] %19
V:4
 z4 z2 E,2 | x8 | x8 | x8 |[M:3/4] x6 |[M:1/4] E,2 |[M:4/4] x8 | x8 | x8 |[M:13/16] x13/2 | %10
[M:1/4] [E,B,]2 |[M:4/4] x8 | z4 z2 B,2 | x8 | x8 | x8 | x8 | x8 |[M:13/16][K:bass] x13/2 |] %19

